icon-svg/sonos-era-100.svg

<svg xmlns="http://www.w3.org/2000/svg" fill="#44739e" viewBox="0 0 24 24"><path d="M11.78 9.664a.26.26 0 0 0 .182-.1.53.53 0 0 0 .077-.186c.043-.162.089-.163.112-.164.046 0 .094.056.1.137a.324.324 0 0 1-.043.151l-.011.011.1.125.003-.008a.4.4 0 0 0 .11-.28.354.354 0 0 0-.074-.218.231.231 0 0 0-.369.008.54.54 0 0 0-.077.187c-.043.162-.089.163-.112.164-.046 0-.094-.056-.1-.137a.32.32 0 0 1 .043-.151l.011-.012-.095-.125-.011.012a.392.392 0 0 0-.11.279.358.358 0 0 0 .074.218.241.241 0 0 0 .19.089m.252 3.216a.451.451 0 0 0 .441-.46.443.443 0 0 0-.46-.44.451.451 0 0 0-.441.459.445.445 0 0 0 .46.441m-.016-.739a.289.289 0 0 1 .013.577.292.292 0 0 1-.295-.282.286.286 0 0 1 .282-.295m-.029-1.396a.451.451 0 0 0-.019-.9.46.46 0 0 0-.441.46.445.445 0 0 0 .46.44m-.016-.739a.289.289 0 1 1-.282.295.286.286 0 0 1 .282-.295m.44 1.7-.003-.162-.473.01.496-.553-.854.018.004.161.473-.01-.497.554zm-.004 1.443a.237.237 0 0 0-.187-.088.169.169 0 0 0-.171.1.57.57 0 0 0-.077.186c-.042.162-.089.163-.112.164-.046 0-.093-.056-.095-.137a.34.34 0 0 1 .043-.151v-.011l-.1-.125-.008.013a.392.392 0 0 0-.11.279.354.354 0 0 0 .074.218.231.231 0 0 0 .369-.008.54.54 0 0 0 .077-.186c.043-.163.089-.164.112-.164.046 0 .094.055.1.136a.32.32 0 0 1-.043.151l-.011.012.095.125.011-.012a.392.392 0 0 0 .11-.279.36.36 0 0 0-.077-.223M6.571 4.736a1.717 1.717 0 0 0 .647 1.679 8.016 8.016 0 0 0 4.912 1.632 8.78 8.78 0 0 0 3.163-.594l.66-.369a3.9 3.9 0 0 0 .533-.388l.02-.018a2.206 2.206 0 0 0 .732-1.178v-.027a1.85 1.85 0 0 0 .031-.316A2.693 2.693 0 0 0 15.83 3a6.57 6.57 0 0 0-2.37-.871h-.006l-.044-.007a9.24 9.24 0 0 0-4.037.246c-.147.044-.293.092-.436.144a3.183 3.183 0 0 0-2.366 2.224m10.938.408-.039.02c0-.039-.008-.078-.014-.117a1.93 1.93 0 0 0-.079-.336 2.44 2.44 0 0 0-.3-.6 3.75 3.75 0 0 0-1.123-1.055l-.012.019a4.1 4.1 0 0 1 .5.4A3.18 3.18 0 0 1 16.9 4a2.28 2.28 0 0 1 .279.568 1.83 1.83 0 0 1 .093.585v.176a2.305 2.305 0 0 1-1.3 1.88l-.665.37a8.83 8.83 0 0 1-3.18.6 8.067 8.067 0 0 1-4.936-1.637 1.646 1.646 0 0 1-.646-1.4 1.8 1.8 0 0 1 .025-.408 2.36 2.36 0 0 1 .688-1.255 3.5 3.5 0 0 1 .71-.543 4.5 4.5 0 0 1 .5-.255 4.8 4.8 0 0 0-.628.309 3.73 3.73 0 0 0-.74.57 2.52 2.52 0 0 0-.729 1.332 2 2 0 0 0-.027.422c0 .048.006.095.011.142l-.045-.031v13.152l.03.047a5.29 5.29 0 0 0 2.658 2 8.6 8.6 0 0 0 1.779.457 9.36 9.36 0 0 0 1.379.1c.164 0 .33-.005.493-.013a7.62 7.62 0 0 0 2.989-.741 4.99 4.99 0 0 0 1.189-.82 3.94 3.94 0 0 0 .843-1.137l.02-.04zm-.235 13.216a3.54 3.54 0 0 1-.721.955 4.56 4.56 0 0 1-1.05.739 6.13 6.13 0 0 1-1.326.5 8.1 8.1 0 0 1-1.55.229 9 9 0 0 1-.49.013 9 9 0 0 1-1.357-.1 7.9 7.9 0 0 1-1.672-.441 5.97 5.97 0 0 1-1.387-.75 4.14 4.14 0 0 1-.993-1.019l-.009-.014V6.351a1.96 1.96 0 0 0 .349.35 7.98 7.98 0 0 0 1.908 1.091 8.3 8.3 0 0 0 2.1.536 8.8 8.8 0 0 0 1.038.062 9.11 9.11 0 0 0 3.281-.618h.007l.678-.378a3.33 3.33 0 0 0 1.036-.944l.162 11.9zM15.83 3l.115.076.012-.019a5.8 5.8 0 0 0-.88-.454 5.5 5.5 0 0 1 .753.4zm1.07 16.69a5.13 5.13 0 0 1-1.215.838 7.73 7.73 0 0 1-3.033.753 9 9 0 0 1-.5.013 9.44 9.44 0 0 1-1.4-.1 8.67 8.67 0 0 1-1.8-.463 5.554 5.554 0 0 1-2.576-1.843C6.639 20.51 9.286 22 12.023 22c2.641 0 5.05-1.256 5.391-2.889a4.2 4.2 0 0 1-.514.579"/></svg>

<?xml version="1.0" encoding="UTF-8"?>
<svg width="24px" fill="#44739e" height="24px" viewBox="0 0 24 24" version="1.1" xmlns="http://www.w3.org/2000/svg" xmlns:xlink="http://www.w3.org/1999/xlink">
            <path d="m 11.78,9.664 a 0.261,0.261 0 0 0 0.182,-0.1 v 0 a 0.531,0.531 0 0 0 0.077,-0.186 c 0.043,-0.162 0.089,-0.163 0.112,-0.164 0.046,0 0.094,0.056 0.1,0.137 a 0.324,0.324 0 0 1 -0.043,0.151 l -0.011,0.011 0.1,0.125 L 12.3,9.63 A 0.4,0.4 0 0 0 12.41,9.35 0.354,0.354 0 0 0 12.336,9.132 0.231,0.231 0 0 0 11.967,9.14 0.537,0.537 0 0 0 11.89,9.327 c -0.043,0.162 -0.089,0.163 -0.112,0.164 -0.046,0 -0.094,-0.056 -0.1,-0.137 A 0.32,0.32 0 0 1 11.721,9.203 L 11.732,9.191 11.637,9.066 11.626,9.078 a 0.392,0.392 0 0 0 -0.11,0.279 0.358,0.358 0 0 0 0.074,0.218 0.241,0.241 0 0 0 0.19,0.089 z m 0.252,3.216 a 0.451,0.451 0 0 0 0.441,-0.46 0.443,0.443 0 0 0 -0.46,-0.44 0.451,0.451 0 0 0 -0.441,0.459 0.445,0.445 0 0 0 0.46,0.441 z m -0.016,-0.739 a 0.289,0.289 0 0 1 0.013,0.577 0.292,0.292 0 0 1 -0.295,-0.282 0.286,0.286 0 0 1 0.282,-0.295 z m -0.029,-1.396 a 0.451,0.451 0 0 0 -0.019,-0.9 0.46,0.46 0 0 0 -0.441,0.46 0.445,0.445 0 0 0 0.46,0.44 z m -0.016,-0.739 a 0.289,0.289 0 1 1 -0.282,0.295 0.286,0.286 0 0 1 0.282,-0.295 z m 0.44,1.7 -0.003,-0.162 -0.473,0.01 0.496,-0.553 -0.854,0.018 0.004,0.161 0.473,-0.01 -0.497,0.554 z m -0.004,1.443 a 0.237,0.237 0 0 0 -0.187,-0.088 0.169,0.169 0 0 0 -0.171,0.1 0.572,0.572 0 0 0 -0.077,0.186 c -0.042,0.162 -0.089,0.163 -0.112,0.164 -0.046,0 -0.093,-0.056 -0.095,-0.137 a 0.337,0.337 0 0 1 0.043,-0.151 V 13.212 L 11.708,13.087 11.7,13.1 a 0.392,0.392 0 0 0 -0.11,0.279 0.354,0.354 0 0 0 0.074,0.218 0.231,0.231 0 0 0 0.369,-0.008 0.54,0.54 0 0 0 0.077,-0.186 c 0.043,-0.163 0.089,-0.164 0.112,-0.164 0.046,0 0.094,0.055 0.1,0.136 a 0.32,0.32 0 0 1 -0.043,0.151 l -0.011,0.012 0.095,0.125 0.011,-0.012 a 0.392,0.392 0 0 0 0.11,-0.279 0.36,0.36 0 0 0 -0.077,-0.223 z M 6.571,4.736 a 1.717,1.717 0 0 0 0.647,1.679 8.016,8.016 0 0 0 4.912,1.632 8.784,8.784 0 0 0 3.163,-0.594 l 0.66,-0.369 a 3.9,3.9 0 0 0 0.533,-0.388 l 0.02,-0.018 v 0 A 2.206,2.206 0 0 0 17.238,5.5 V 5.482 5.473 A 1.849,1.849 0 0 0 17.269,5.157 2.693,2.693 0 0 0 15.83,3 V 3 A 6.565,6.565 0 0 0 13.46,2.129 H 13.454 L 13.41,2.122 A 9.24,9.24 0 0 0 9.373,2.368 C 9.226,2.412 9.08,2.46 8.937,2.512 A 3.183,3.183 0 0 0 6.571,4.736 Z m 10.938,0.408 -0.039,0.02 c 0,-0.039 -0.008,-0.078 -0.014,-0.117 a 1.925,1.925 0 0 0 -0.079,-0.336 2.442,2.442 0 0 0 -0.3,-0.6 3.753,3.753 0 0 0 -1.123,-1.055 l -0.012,0.019 a 4.092,4.092 0 0 1 0.5,0.4 A 3.178,3.178 0 0 1 16.9,4 a 2.283,2.283 0 0 1 0.279,0.568 1.834,1.834 0 0 1 0.093,0.585 c 0,0.025 0,0.051 0,0.076 0,0.025 0,0.07 0,0.1 a 2.305,2.305 0 0 1 -1.3,1.88 l -0.665,0.37 a 8.834,8.834 0 0 1 -3.18,0.6 A 8.067,8.067 0 0 1 7.191,6.542 1.646,1.646 0 0 1 6.545,5.142 1.809,1.809 0 0 1 6.57,4.734 2.362,2.362 0 0 1 7.258,3.479 3.494,3.494 0 0 1 7.968,2.936 4.464,4.464 0 0 1 8.468,2.681 4.824,4.824 0 0 0 7.84,2.99 3.727,3.727 0 0 0 7.1,3.56 2.521,2.521 0 0 0 6.371,4.892 2,2 0 0 0 6.344,5.314 c 0,0.048 0.006,0.095 0.011,0.142 L 6.31,5.425 v 13.152 l 0.03,0.047 a 5.291,5.291 0 0 0 2.658,2 8.591,8.591 0 0 0 1.779,0.457 9.36,9.36 0 0 0 1.379,0.1 c 0.164,0 0.33,-0.005 0.493,-0.013 a 7.624,7.624 0 0 0 2.989,-0.741 4.99,4.99 0 0 0 1.189,-0.82 3.943,3.943 0 0 0 0.843,-1.137 l 0.02,-0.04 z M 17.274,18.36 a 3.541,3.541 0 0 1 -0.721,0.955 4.555,4.555 0 0 1 -1.05,0.739 6.132,6.132 0 0 1 -1.326,0.5 8.1,8.1 0 0 1 -1.55,0.229 c -0.164,0.009 -0.327,0.013 -0.49,0.013 A 8.977,8.977 0 0 1 10.78,20.696 7.906,7.906 0 0 1 9.108,20.255 5.971,5.971 0 0 1 7.721,19.505 4.137,4.137 0 0 1 6.728,18.486 L 6.719,18.472 V 6.351 a 1.959,1.959 0 0 0 0.349,0.35 7.983,7.983 0 0 0 1.908,1.091 8.294,8.294 0 0 0 2.1,0.536 8.763,8.763 0 0 0 1.038,0.062 9.109,9.109 0 0 0 3.281,-0.618 h 0.007 L 16.08,7.394 v 0 A 3.332,3.332 0 0 0 17.116,6.45 l 0.162,11.9 z M 15.83,3 v 0 l 0.115,0.076 0.012,-0.019 a 5.78,5.78 0 0 0 -0.88,-0.454 5.529,5.529 0 0 1 0.753,0.4 z m 1.07,16.69 a 5.13,5.13 0 0 1 -1.215,0.838 7.726,7.726 0 0 1 -3.033,0.753 c -0.165,0.009 -0.333,0.013 -0.5,0.013 a 9.441,9.441 0 0 1 -1.4,-0.1 8.671,8.671 0 0 1 -1.8,-0.463 5.554,5.554 0 0 1 -2.576,-1.843 C 6.639,20.51 9.286,22 12.023,22 c 2.641,0 5.05,-1.256 5.391,-2.889 A 4.213,4.213 0 0 1 16.9,19.69 Z"/>

</svg>
